X:1
T:Title
%%score [ ( 1 2 ) ( 3 4 ) ]
L:1/8
Q:1/4=100
M:4/4
K:D
V:1 treble nm="Midi_20"
V:2 treble 
V:3 bass nm="Midi_20"
V:4 bass 
V:1
"^Doncaster (S.M.)""^Put thou thy trust in God""^Samuel Wesley\n(1766-1837)""^John Wesley (and others)\n(1703-91)" A2 | %1
 d2 F2 G2 B2 | A6 A2 | B2 A2 c2 d2 | E6 || A2 | A2 d2 c2 F2 | F2 B2 A2 B2 | G2 F2 E2 E2 | D6 |] %10
V:2
 F2 | D2 D2 D2 G2 | F6 A2 | D2 A2 G2 FD | C6 || E2 | A2 F2 E2 F2 | D2 G2 F2 D2 | C2 D2 D2 C2 | %9
 D6 |] %10
V:3
"^1. Put thou thy trust in God,\nIn duty's path go on;\nWalk in his strength with faith and hope,\nSo shall thy work be done.\n\n2. Commit thy ways to him,\nThy works into his hands,\nAnd rest on his unchanging word,\nWho heaven and earth commands.\n\n3. Though years on years roll on,\nHis covenant shall endure;\nThough cloud and darkness hide his path,\nThe promised grace is sure." D2 | %1
 A,2 A,2 B,2 D2 | D6 D2 | D2 D2 E2 A,2 | A,6 || C2 | %6
"^4. Give to the winds thy fears;\nHope and be undismayed:\nGod hears thy sighs and counts thy tears;\nGod shall lift up thy head.\n\n5. Through waves and clouds and storms\nHis power will clear thy way:\nWait thou his time; the darkest night\nShall end in brightest day.\n\n6. Leave to his sovereign way\nTo choose and to command;\nSo shalt thou, wondering, own his way,\nHow wise, how strong his hand." D2 A,2 A,2 C2 | %7
 D2 D2 D2 G,2 | G,2 A,2 A,3 G, | F,6 |] %10
V:4
 D,2 | F,2 D,2 B,2 G,2 | D,6 F,2 | G,2 F,2 E,2 D,2 | A,,6 || A,2 | F,2 D,2 A,2 ^A,2 | %7
 B,2 G,2 D,2 G,2 | E,2 D,2 A,,2 A,,2 | D,6 |] %10

